svgs/thin/headphones.svg

<svg xmlns="http://www.w3.org/2000/svg" viewBox="0 0 512 512"><!-- Font Awesome Pro 6.0.0-alpha2 by @fontawesome - https://fontawesome.com License - https://fontawesome.com/license (Commercial License) --><path d="M256 32C117.219 32 4.781 144.328 0 288V399.875C0 444.055 35.889 480 80 480C106.467 480 128 458.438 128 431.938V304.062C128 277.562 106.467 256 80 256C53.738 256 30.596 268.91 16 288.547V288.266C20.469 153.531 125.906 48 256 48C386.062 48 491.5 153.531 496 288V288.547C481.404 268.91 458.262 256 432 256C405.533 256 384 277.562 384 304.062V431.938C384 458.438 405.533 480 432 480C476.111 480 512 444.055 512 399.875V287.734C507.188 144.328 394.75 32 256 32ZM80 272C97.656 272 112 286.344 112 304.062V431.938C112 449.641 97.656 464 80 464C44.656 464 16 435.297 16 399.875V336.125C16 300.703 44.656 272 80 272ZM496 399.875C496 435.297 467.344 464 432 464C414.344 464 400 449.641 400 431.938V304.062C400 286.344 414.344 272 432 272C467.344 272 496 300.703 496 336.125V399.875Z"/></svg>

<svg xmlns="http://www.w3.org/2000/svg" viewBox="0 0 512 512"><!--! Font Awesome Pro 6.3.0 by @fontawesome - https://fontawesome.com License - https://fontawesome.com/license (Commercial License) Copyright 2023 Fonticons, Inc. --><path d="M256 32C117.2 32 4.781 144.3 0 288l.0042 111.9C.0042 444.1 35.89 480 80 480C106.5 480 128 458.4 128 431.9V304.1C128 277.6 106.5 256 80 256c-26.26 0-49.4 12.91-64 32.55C20.47 153.8 125.9 48 256 48c130.1 0 235.5 105.5 240 240v.5469C481.4 268.9 458.3 256 432 256C405.5 256 384 277.6 384 304.1v127.9C384 458.4 405.5 480 432 480c44.11 0 79.1-35.88 79.1-80.06L512 287.9C507.2 144.5 394.8 32 256 32zM80 272c17.66 0 32 14.34 32 32.06v127.9C112 449.6 97.66 464 80 464c-35.34 0-64-28.7-64-64.13v-63.75C16 300.7 44.66 272 80 272zM496 399.9C496 435.3 467.3 464 432 464c-17.66 0-32-14.36-32-32.06V304.1C400 286.3 414.3 272 432 272c35.34 0 64 28.7 64 64.13V399.9z"/></svg>
